**kern	**kern
*staff2	*staff1
*clefG2	*clefG2
*k[f#c#]	*k[f#c#]
*D:	*D
*clefF4	*clefG2
*M2/4	*M2/4
=241:|!	=241:|!
8F#L 8d	8cc'L
8F#J 8d	8cc'J
8F#L 8d	(16ccLL
.	16b
8F#J 8d	16cc
.	16ddJJ
=242	=242
4G 4d	4b)
4r	4r
=243	=243
8AL 8d	8a'L
8AJ 8d	8a'J
8AL 8d	(16aLL
.	16g#
8AJ 8d	16a
.	16bJJ
=244	=244
4B 4d	4g#)
4r	4r
=245	=245
2B- 2d 2g	8gg'L
.	8gg'J
.	(16ggLL
.	16ff#
.	16gg
.	16aaJJ)
=246	=246
4A 4c# 4g	16ggLL
.	16ee
.	16gg
.	16ccc#JJ
8r	16eeeLL
.	16gg
8BB- 8B-	16ddd
.	16ggJJ
=247	=247
4.AA 4.A	16eeeLL
.	16gg
.	16ee
.	16ggJJ
.	16eeeLL
.	16gg
8BB- 8B-	16ddd
.	16ggJJ
=248	=248
4.AA 4.A	16ccc#LL
.	16gg
.	16ee
.	16ggJJ
.	16eeeLL
.	16gg
8BB- 8B-	16ddd
.	16ggJJ
=249	=249
8AAL 8A	16ccc#LL
.	16gg
8BB-J 8B-	16ddd
.	16ggJJ
8AAL 8A	16ccc#LL
.	16gg
8BB-J 8B-	16ddd
.	16ggJJ
=250	=250
[2A	16ccc#LL
.	16aa
.	16eee
.	16ggJJ
.	16ff#LL
.	16aa
.	16eee
.	16dddJJ
=251	=251
2A]	16eeLL
.	16gg
.	16ddd
.	16ccc#JJ
.	16ddLL
.	16ff#
.	16ccc#
.	16bbJJ
=252	=252
[2AA	16cc#LL
.	16ee
.	16bb
.	16aaJJ
.	16bLL
.	16dd
.	16aa
.	16ggJJ
=253	=253
2AA_	16aLL
.	16cc#
.	16gg
.	16ff#JJ
.	16gLL
.	16b
.	16ff#
.	16eeJJ
=254	=254
2AA_	16f#LL
.	16a
.	16ee
.	16ddJJ
.	16eLL
.	16g
.	16dd
.	16cc#JJ
=255	=255
2AA]	16dLL
.	16f#
.	16cc#
.	16bJJ
.	16c#LL
.	16e
.	16b
.	16aJJ
*clefG2	*
=256	=256
8r	16BLL
.	16d
(8dd	16f
.	16g#JJ
8eeL	16eLL
.	16g#
8ffJ)	16d
.	16g#JJ
=257	=257
8r	16BLL
.	16d
(8dd	16f
.	16g#JJ
8eeL	16eLL
.	16g#
8ffJ)	16d
.	16g#JJ
=258	=258
8r	16BLL
.	16d
(8dd	16f
.	16g#JJ
8eeL	16eLL
.	16g#
8ffJ)	16d
.	16g#JJ
=259	=259
(8ffL	16dLL
.	16g#
8eeJ)	16e
.	16g#JJ
(8eeL	16eLL
.	16g#
8ddJ)	16f
.	16g#JJ
*clefF4	*
=260	=260
8r	16c#LL
.	16e
(8EE	16g
.	16b-JJ
8DDL	16fLL
.	16b-
8CC#J)	16e
.	16b-JJ
=261	=261
8r	16c#LL
.	16e
(8EE	16g
.	16b-JJ
8DDL	16fLL
.	16b-
8CC#J)	16e
.	16b-JJ
=262	=262
(8CC#L	16eLL
.	16b-
8DDJ)	16d
.	16b-JJ
(8DDL	16dLL
.	16b-
8EEJ)	16c#
.	16b-JJ
=263	=263
4EE	4c#
4DD	4r
=264	=264
4CC#	2r
4BBB-	.
*	*clefF4
=265	=265
*M19/8	*M19/8
1AAA 1CC# 1EE 1GG	2AAA;
.	(64AALLLL
.	64C#
.	64BB
.	64D
.	64C#
.	64E
.	64D
.	64F#JJJ
.	64ELLL
.	64Gn
.	64F#
.	64A
.	64G
.	64B
.	64A
.	64c#JJJJ
*	*clefG2
.	64BLLLL
.	64d
.	64c#
.	64e
.	64d
.	64f#
.	64e
.	64gJJJ
.	64f#LLL
.	64a
.	64g
.	64b
.	64a
.	64cc#
.	64b
.	64ddJJJ
4r	64cc#LLL
.	64ee
.	64dd
.	64ff#
.	64ee
.	64gg
.	64ff#
.	64aaJJJJ)
.	2gg
4r	.
2.r	.
.	2gg#
.	(8.bbL
8r	.
.	16aaJk)
=	=
*-	*-
